src/assets/img/icons/mdi_camera-plus-outline.svg

<svg width="32" height="32" viewBox="0 0 32 32" fill="none" xmlns="http://www.w3.org/2000/svg">
<path d="M28 7.99998H23.7333L21.3333 5.33331H13.3333V7.99998H20.1333L22.6667 10.6666H28V26.6666H6.66667V14.6666H4V26.6666C4 28.1333 5.2 29.3333 6.66667 29.3333H28C29.4667 29.3333 30.6667 28.1333 30.6667 26.6666V10.6666C30.6667 9.19998 29.4667 7.99998 28 7.99998ZM10.6667 18.6666C10.6667 24.6 17.8533 27.5866 22.0533 23.3866C26.2533 19.1866 23.2667 12 17.3333 12C13.6533 12 10.6667 14.9866 10.6667 18.6666ZM17.3333 14.6666C18.3846 14.6968 19.3846 15.128 20.1283 15.8717C20.872 16.6154 21.3031 17.6153 21.3333 18.6666C21.3031 19.718 20.872 20.7179 20.1283 21.4616C19.3846 22.2053 18.3846 22.6364 17.3333 22.6666C16.282 22.6364 15.2821 22.2053 14.5384 21.4616C13.7947 20.7179 13.3635 19.718 13.3333 18.6666C13.3635 17.6153 13.7947 16.6154 14.5384 15.8717C15.2821 15.128 16.282 14.6968 17.3333 14.6666Z" fill="#000100"/>
<path d="M6.66667 7.99998H10.6667V5.33331H6.66667V1.33331H4V5.33331H0V7.99998H4V12H6.66667" fill="#E3433D"/>
</svg>

<svg xmlns="http://www.w3.org/2000/svg" width="34" height="34" viewBox="0 0 34 34">
  <g id="mdi_camera-plus-outline" transform="translate(1 -0.333)">
    <rect id="Rectangle_5" data-name="Rectangle 5" width="34" height="34" transform="translate(-1 0.333)" fill="none"/>
    <path id="Path_16" data-name="Path 16" d="M28,8H23.733l-2.4-2.667h-8V8h6.8l2.533,2.667H28v16H6.667v-12H4v12a2.675,2.675,0,0,0,2.667,2.667H28a2.675,2.675,0,0,0,2.667-2.667v-16A2.675,2.675,0,0,0,28,8ZM10.667,18.667A6.67,6.67,0,1,0,17.333,12,6.674,6.674,0,0,0,10.667,18.667Zm6.667-4a4.12,4.12,0,0,1,4,4,4.12,4.12,0,0,1-4,4,4.12,4.12,0,0,1-4-4,4.12,4.12,0,0,1,4-4Z" fill="#000100"/>
    <path id="Path_17" data-name="Path 17" d="M5.324,6.658H8.519V4.528H5.324V1.333H3.195V4.528H0v2.13H3.195V9.852h2.13" transform="translate(1 4)" fill="#e3433d"/>
  </g>
</svg>
